src/assets/Cryptologos/Currency=Ethereum.svg

<?xml version="1.0" encoding="utf-8"?>
<svg xmlns="http://www.w3.org/2000/svg" fill="none" height="26" viewBox="0 0 26 26" width="26">
<path d="M25.9295 13.0002C25.9295 20.1421 20.14 25.9318 12.9982 25.9318C5.85625 25.9318 0.0666504 20.1421 0.0666504 13.0002C0.0666504 5.8584 5.85625 0.0688095 12.9982 0.0688095C20.1399 0.0688095 25.9295 5.8584 25.9295 13.0002Z" fill="#505050" opacity="0.2"/>
<g opacity="0.8">
<path d="M12.9568 7L12.877 7.27148V15.1493L12.9568 15.229L16.6136 13.0675L12.9568 7Z" fill="white"/>
<path d="M12.9568 7L9.30005 13.0675L12.9568 15.229V11.4054V7Z" fill="white"/>
<path d="M12.9568 16.4188L12.9117 16.4736V19.2799L12.9568 19.4113L16.6157 14.2583L12.9568 16.4188Z" fill="white"/>
<path d="M12.9568 19.4114V16.4188L9.30005 14.2583L12.9568 19.4114Z" fill="white"/>
<path d="M12.9568 15.229L16.6135 13.0675L12.9568 11.4054V15.229Z" fill="white"/>
<path d="M9.30005 13.0675L12.9568 15.229V11.4054L9.30005 13.0675Z" fill="white"/>
</g>
</svg>

<svg width="26" height="26" fill="none" xmlns="http://www.w3.org/2000/svg"><path opacity=".2" d="M25.93 13c0 7.142-5.79 12.932-12.932 12.932S.067 20.142.067 13 5.857.07 12.998.07C20.14.069 25.93 5.859 25.93 13z" fill="#505050"/><g opacity=".8" fill="#fff"><path d="m12.957 7-.08.271v7.878l.08.08 3.656-2.161L12.957 7z"/><path d="M12.957 7 9.3 13.068l3.657 2.161V7zM12.957 16.419l-.045.055v2.806l.045.131 3.659-5.153-3.66 2.16z"/><path d="M12.957 19.411V16.42L9.3 14.259l3.657 5.152zM12.957 15.229l3.656-2.161-3.656-1.663v3.824z"/><path d="m9.3 13.068 3.657 2.161v-3.824L9.3 13.068z"/></g></svg>
